static/img/icon_information.svg

<svg width="24" height="24" viewBox="0 0 24 24" fill="none" xmlns="http://www.w3.org/2000/svg">
<path d="M12 6.5C8.67188 6.5 6 9.19531 6 12.5C6 15.8281 8.67188 18.5 12 18.5C15.3047 18.5 18 15.8281 18 12.5C18 9.19531 15.3047 6.5 12 6.5ZM12 17.375C9.30469 17.375 7.125 15.1953 7.125 12.5C7.125 9.82812 9.30469 7.625 12 7.625C14.6719 7.625 16.875 9.82812 16.875 12.5C16.875 15.1953 14.6719 17.375 12 17.375ZM12.9375 14.375H12.5625V12.3125C12.5625 12.0078 12.3047 11.75 12 11.75H11.25C10.9219 11.75 10.6875 12.0078 10.6875 12.3125C10.6875 12.6406 10.9219 12.875 11.25 12.875H11.4375V14.375H11.0625C10.7344 14.375 10.5 14.6328 10.5 14.9375C10.5 15.2656 10.7344 15.5 11.0625 15.5H12.9375C13.2422 15.5 13.5 15.2656 13.5 14.9375C13.5 14.6328 13.2422 14.375 12.9375 14.375ZM12 11C12.3984 11 12.75 10.6719 12.75 10.25C12.75 9.85156 12.3984 9.5 12 9.5C11.5781 9.5 11.25 9.85156 11.25 10.25C11.25 10.6719 11.5781 11 12 11Z" fill="#1D4ED8"/>
<path d="M12 6.5C8.67188 6.5 6 9.19531 6 12.5C6 15.8281 8.67188 18.5 12 18.5C15.3047 18.5 18 15.8281 18 12.5C18 9.19531 15.3047 6.5 12 6.5ZM12 17.375C9.30469 17.375 7.125 15.1953 7.125 12.5C7.125 9.82812 9.30469 7.625 12 7.625C14.6719 7.625 16.875 9.82812 16.875 12.5C16.875 15.1953 14.6719 17.375 12 17.375ZM12.9375 14.375H12.5625V12.3125C12.5625 12.0078 12.3047 11.75 12 11.75H11.25C10.9219 11.75 10.6875 12.0078 10.6875 12.3125C10.6875 12.6406 10.9219 12.875 11.25 12.875H11.4375V14.375H11.0625C10.7344 14.375 10.5 14.6328 10.5 14.9375C10.5 15.2656 10.7344 15.5 11.0625 15.5H12.9375C13.2422 15.5 13.5 15.2656 13.5 14.9375C13.5 14.6328 13.2422 14.375 12.9375 14.375ZM12 11C12.3984 11 12.75 10.6719 12.75 10.25C12.75 9.85156 12.3984 9.5 12 9.5C11.5781 9.5 11.25 9.85156 11.25 10.25C11.25 10.6719 11.5781 11 12 11Z" fill="#1D4ED8"/>
</svg>

<svg width="24" height="24" fill="none" xmlns="http://www.w3.org/2000/svg"><path d="M12 6.5c-3.328 0-6 2.695-6 6 0 3.328 2.672 6 6 6 3.305 0 6-2.672 6-6 0-3.305-2.695-6-6-6Zm0 10.875A4.871 4.871 0 0 1 7.125 12.5c0-2.672 2.18-4.875 4.875-4.875 2.672 0 4.875 2.203 4.875 4.875 0 2.695-2.203 4.875-4.875 4.875Zm.938-3h-.376v-2.063A.57.57 0 0 0 12 11.75h-.75a.555.555 0 0 0-.563.563c0 .328.235.562.563.562h.188v1.5h-.376a.555.555 0 0 0-.562.563c0 .328.234.562.563.562h1.874a.555.555 0 0 0 .563-.563.57.57 0 0 0-.563-.562ZM12 11c.398 0 .75-.328.75-.75A.771.771 0 0 0 12 9.5a.755.755 0 0 0-.75.75c0 .422.328.75.75.75Z" fill="#1D4ED8"/><path d="M12 6.5c-3.328 0-6 2.695-6 6 0 3.328 2.672 6 6 6 3.305 0 6-2.672 6-6 0-3.305-2.695-6-6-6Zm0 10.875A4.871 4.871 0 0 1 7.125 12.5c0-2.672 2.18-4.875 4.875-4.875 2.672 0 4.875 2.203 4.875 4.875 0 2.695-2.203 4.875-4.875 4.875Zm.938-3h-.376v-2.063A.57.57 0 0 0 12 11.75h-.75a.555.555 0 0 0-.563.563c0 .328.235.562.563.562h.188v1.5h-.376a.555.555 0 0 0-.562.563c0 .328.234.562.563.562h1.874a.555.555 0 0 0 .563-.563.57.57 0 0 0-.563-.562ZM12 11c.398 0 .75-.328.75-.75A.771.771 0 0 0 12 9.5a.755.755 0 0 0-.75.75c0 .422.328.75.75.75Z" fill="#1D4ED8"/></svg>
